Numix-GalliumOS/16/status/dropboxstatus-busy2.svg

<?xml version="1.0" encoding="UTF-8" standalone="no"?>
<svg
   xmlns:dc="http://purl.org/dc/elements/1.1/"
   xmlns:cc="http://creativecommons.org/ns#"
   xmlns:rdf="http://www.w3.org/1999/02/22-rdf-syntax-ns#"
   xmlns:svg="http://www.w3.org/2000/svg"
   xmlns="http://www.w3.org/2000/svg"
   xmlns:sodipodi="http://sodipodi.sourceforge.net/DTD/sodipodi-0.dtd"
   xmlns:inkscape="http://www.inkscape.org/namespaces/inkscape"
   width="16"
   height="16"
   viewBox="0 0 16 16"
   id="svg3005"
   version="1.1"
   inkscape:version="0.91 r"
   sodipodi:docname="dropboxstatus-busy2.svg">
  <metadata
     id="metadata3017">
    <rdf:RDF>
      <cc:Work
         rdf:about="">
        <dc:format>image/svg+xml</dc:format>
        <dc:type
           rdf:resource="http://purl.org/dc/dcmitype/StillImage" />
      </cc:Work>
    </rdf:RDF>
  </metadata>
  <defs
     id="defs3015" />
  <sodipodi:namedview
     pagecolor="#ffffff"
     bordercolor="#666666"
     borderopacity="1"
     objecttolerance="10"
     gridtolerance="10"
     guidetolerance="10"
     inkscape:pageopacity="0"
     inkscape:pageshadow="2"
     inkscape:window-width="688"
     inkscape:window-height="480"
     id="namedview3013"
     showgrid="false"
     inkscape:zoom="14.75"
     inkscape:cx="8"
     inkscape:cy="8"
     inkscape:window-x="0"
     inkscape:window-y="0"
     inkscape:window-maximized="0"
     inkscape:current-layer="svg3005" />
  <path
     style="fill:#ececec;fill-opacity:1"
     inkscape:connector-curvature="0"
     id="path3011"
     d="M 4.726562,2.546875 1.453125,5.089844 4.726562,7.273438 1.453125,10.183594 8,14.546875 14.546875,10.183594 11.273438,7.273438 14.546875,5.089844 11.273438,2.546875 8,5.089844 z M 8,6.183594 c 1.28125,0 2.453125,0.78125 2.953125,1.976562 l 0.683594,-0.25 -0.570313,2 L 9.226562,8.839844 9.953125,8.566406 C 9.613281,7.792969 8.839844,7.273438 8,7.273438 c -0.882812,0 -1.671875,0.527343 -2,1.363281 L 5,8.25 C 5.492188,7 6.675781,6.183594 8,6.183594 z M 4.910156,8.953125 6.773438,10.066406 6.046875,10.363281 C 6.394531,11.144531 7.152344,11.636719 8,11.636719 c 0.878906,0 1.683594,-0.550781 2,-1.386719 l 1,0.386719 c -0.476562,1.253906 -1.679688,2.089843 -3,2.089843 -1.289062,0 -2.441406,-0.777343 -2.953125,-1.976562 l -0.683594,0.296875 z" />
</svg>

<svg xmlns="http://www.w3.org/2000/svg" viewBox="0 0 16 16">
 <path d="m 4.727 2.547 -3.273 2.543 3.273 2.184 -3.273 2.91 6.547 4.363 6.547 -4.363 -3.273 -2.91 3.273 -2.184 -3.273 -2.543 -3.273 2.543 z m 3.273 3.637 c 1.281 0 2.453 0.781 2.953 1.977 l 0.684 -0.25 -0.57 2 l -1.84 -1.07 0.727 -0.273 c -0.34 -0.773 -1.113 -1.293 -1.953 -1.293 c -0.883 0 -1.672 0.527 -2 1.363 l -1 -0.387 c 0.492 -1.25 1.676 -2.066 3 -2.066 z m -3.09 2.77 1.863 1.113 -0.727 0.297 c 0.348 0.781 1.105 1.273 1.953 1.273 c 0.879 0 1.684 -0.551 2 -1.387 l 1 0.387 c -0.477 1.254 -1.68 2.09 -3 2.09 -1.289 0 -2.441 -0.777 -2.953 -1.977 l -0.684 0.297 z" style="fill:#ececec;fill-opacity:1"/>
</svg>
